images/client-logos/nationwide.svg

<svg fill="none" height="794" viewBox="0 0 2280 794" width="2280" xmlns="http://www.w3.org/2000/svg" xmlns:xlink="http://www.w3.org/1999/xlink"><mask id="a" fill="#fff"><path clip-rule="evenodd" d="m431.176 176.117h134.64v463.566h-144.263l-284.686-275.063v275.063h-136.572078v-463.566h142.343078l288.538 273.157zm340.47 1.92h38.468v207.75h-40.388l-80.801-148.115v148.115h-38.469v-207.75h42.321l78.869 144.263zm94.251 207.75h-42.32l69.245-207.75h46.173l69.245 207.75h-44.24l-11.543-42.321h-73.097zm25.006-78.87h50.011l-25.006-82.708zm186.587 78.87h-40.41v-171.201h-59.617v-36.549h159.657v36.549h-59.63zm69.24-207.75h40.4v207.75h-40.4zm153.89-5.772c25 0 94.26 11.543 94.26 109.647 0 98.09-69.26 109.646-94.26 109.646-26.93 0-94.27-11.543-94.27-109.646 0-98.117 67.34-109.647 94.27-109.647zm0 182.744c21.15 0 51.93-15.395 51.93-73.097 0-57.703-30.78-73.098-51.93-73.098-23.08 0-53.85 15.395-53.85 73.098 0 57.702 30.76 73.097 53.85 73.097zm246.22-176.972h36.54v207.75h-40.4l-78.85-148.115h-1.92v148.115h-36.56v-207.75h42.33l76.94 144.263h1.92zm55.78 0h42.33c25.01 113.485 28.86 128.88 30.75 151.954h1.92c3.85-21.154 5.77-42.321 26.93-151.954h42.33c23.07 113.485 25.01 125.028 30.78 151.954 3.85-19.235 5.77-38.469 30.78-151.954h42.33l-55.81 207.75h-38.46c-21.17-101.956-23.09-121.19-30.77-161.578-5.77 40.388-9.63 53.851-30.78 161.578h-38.48zm269.3 0h40.38v207.75h-40.38zm69.25 0h84.63c67.3 0 80.78 59.635 80.78 98.09 0 46.173-17.3 109.647-80.78 109.647h-84.63zm38.45 171.188h40.4c32.7 0 44.23-34.617 44.23-69.246 0-61.554-26.92-65.393-44.23-65.393h-40.4zm296.23-134.639h-103.86v44.24h94.27v36.548h-94.27v53.851h107.72v36.562h-148.12v-207.75h144.26zm-1625.394 225.051h42.321v205.83h-42.321zm200.046 0h40.401v205.83h-42.321l-82.708-148.115v148.115h-40.401v-205.83h44.253l80.776 144.263zm109.646 142.343c0 11.556 5.772 32.697 42.322 32.697 21.15 0 42.32-3.852 42.32-25.006 0-17.327-15.4-21.153-36.55-26.925l-21.154-5.772c-32.696-7.704-63.486-13.475-63.486-59.635 0-23.073 11.543-63.486 76.95-63.486 61.55 0 78.87 40.4 78.87 67.325h-40.4c-1.92-9.623-5.77-32.696-42.323-32.696-15.395 0-34.616 5.771-34.616 25.005 0 17.302 13.475 19.222 21.154 21.154l50.015 13.476c26.92 7.704 51.93 17.301 51.93 55.783 0 61.554-61.56 67.326-78.87 67.326-73.1 0-86.562-44.253-86.562-69.259h40.4zm319.312-7.704c0 53.851-32.69 76.963-82.7 76.963-19.25 0-46.19-3.852-63.49-25.006-11.54-13.476-15.4-28.858-17.32-50.024v-136.572h44.26v132.707c0 28.857 15.38 42.333 34.63 42.333 28.85 0 42.3-13.476 42.3-40.401v-134.639h42.34v134.639zm42.31-134.639h101.96c53.85 0 63.48 40.375 63.48 57.702 0 23.074-9.62 42.308-30.77 49.999 17.3 7.704 26.92 13.476 26.92 51.931 0 30.777 0 38.481 7.71 40.401v5.771h-46.19c-1.92-9.623-3.85-19.221-3.85-42.333 0-26.925-1.9-38.455-32.7-38.455h-44.23v80.788h-42.33zm92.33 90.412c21.18 0 32.7-7.704 32.7-28.858 0-9.623-5.77-26.925-30.78-26.925h-51.93v55.783zm146.19 115.418h-44.23l71.18-205.817h48.08l71.15 205.817h-46.16l-11.56-42.333h-75zm25-78.869h51.96l-25.01-80.802h-1.92zm263.55-126.961h38.45v205.83h-40.37l-82.71-148.115h-1.93v148.115h-38.47v-205.83h44.22l80.81 144.263zm207.75 67.339c-1.92-13.476-9.63-36.549-44.26-36.549-19.22 0-50 13.45-50 73.085 0 36.549 15.39 71.178 50 71.178 23.08 0 40.4-13.476 44.26-40.401h42.3c-7.7 46.185-36.55 76.963-86.56 76.963-53.85 0-92.33-36.549-92.33-107.74 0-73.085 40.4-109.634 92.33-109.634 59.64 0 84.63 42.334 86.56 73.111h-42.3zm217.34-30.777h-103.86v42.307h96.19v36.549h-96.19v53.85h109.64v36.562h-150.04v-205.83h144.26z" fill="#fff" fill-rule="evenodd"/></mask><path d="m492.5 703s-13.554-6.044-15.5-8c-3.904-1.956-10.288-1.809-22 8-11.699 9.809-46.192 14-46.192 14s5.85-7.852 7.796-15.704c1.945-5.883-15.604-9.809-15.604-9.809l15.604-13.709-5.85-11.778 66.246-3.5s1.946 7.117 0 13l28.5 5c9.754.013-13 22.5-13 22.5z" fill="#e3e8f0"/><g clip-rule="evenodd" fill-rule="evenodd"><path d="m431.176 176.117h134.64v463.566h-144.263l-284.686-275.063v275.063h-136.572078v-463.566h142.343078l288.538 273.157zm340.47 1.92h38.468v207.75h-40.388l-80.801-148.115v148.115h-38.469v-207.75h42.321l78.869 144.263zm94.251 207.75h-42.32l69.245-207.75h46.173l69.245 207.75h-44.24l-11.543-42.321h-73.097zm25.006-78.87h50.011l-25.006-82.708zm186.587 78.87h-40.41v-171.201h-59.617v-36.549h159.657v36.549h-59.63zm69.24-207.75h40.4v207.75h-40.4zm153.89-5.772c25 0 94.26 11.543 94.26 109.647 0 98.09-69.26 109.646-94.26 109.646-26.93 0-94.27-11.543-94.27-109.646 0-98.117 67.34-109.647 94.27-109.647zm0 182.744c21.15 0 51.93-15.395 51.93-73.097 0-57.703-30.78-73.098-51.93-73.098-23.08 0-53.85 15.395-53.85 73.098 0 57.702 30.76 73.097 53.85 73.097zm246.22-176.972h36.54v207.75h-40.4l-78.85-148.115h-1.92v148.115h-36.56v-207.75h42.33l76.94 144.263h1.92zm55.78 0h42.33c25.01 113.485 28.86 128.88 30.75 151.954h1.92c3.85-21.154 5.77-42.321 26.93-151.954h42.33c23.07 113.485 25.01 125.028 30.78 151.954 3.85-19.235 5.77-38.469 30.78-151.954h42.33l-55.81 207.75h-38.46c-21.17-101.956-23.09-121.19-30.77-161.578-5.77 40.388-9.63 53.851-30.78 161.578h-38.48zm269.3 0h40.38v207.75h-40.38zm69.25 0h84.63c67.3 0 80.78 59.635 80.78 98.09 0 46.173-17.3 109.647-80.78 109.647h-84.63zm38.45 171.188h40.4c32.7 0 44.23-34.617 44.23-69.246 0-61.554-26.92-65.393-44.23-65.393h-40.4zm296.23-134.639h-103.86v44.24h94.27v36.548h-94.27v53.851h107.72v36.562h-148.12v-207.75h144.26zm-1625.394 225.051h42.321v205.83h-42.321zm200.046 0h40.401v205.83h-42.321l-82.708-148.115v148.115h-40.401v-205.83h44.253l80.776 144.263zm109.646 142.343c0 11.556 5.772 32.697 42.322 32.697 21.15 0 42.32-3.852 42.32-25.006 0-17.327-15.4-21.153-36.55-26.925l-21.154-5.772c-32.696-7.704-63.486-13.475-63.486-59.635 0-23.073 11.543-63.486 76.95-63.486 61.55 0 78.87 40.4 78.87 67.325h-40.4c-1.92-9.623-5.77-32.696-42.323-32.696-15.395 0-34.616 5.771-34.616 25.005 0 17.302 13.475 19.222 21.154 21.154l50.015 13.476c26.92 7.704 51.93 17.301 51.93 55.783 0 61.554-61.56 67.326-78.87 67.326-73.1 0-86.562-44.253-86.562-69.259h40.4zm319.312-7.704c0 53.851-32.69 76.963-82.7 76.963-19.25 0-46.19-3.852-63.49-25.006-11.54-13.476-15.4-28.858-17.32-50.024v-136.572h44.26v132.707c0 28.857 15.38 42.333 34.63 42.333 28.85 0 42.3-13.476 42.3-40.401v-134.639h42.34v134.639zm42.31-134.639h101.96c53.85 0 63.48 40.375 63.48 57.702 0 23.074-9.62 42.308-30.77 49.999 17.3 7.704 26.92 13.476 26.92 51.931 0 30.777 0 38.481 7.71 40.401v5.771h-46.19c-1.92-9.623-3.85-19.221-3.85-42.333 0-26.925-1.9-38.455-32.7-38.455h-44.23v80.788h-42.33zm92.33 90.412c21.18 0 32.7-7.704 32.7-28.858 0-9.623-5.77-26.925-30.78-26.925h-51.93v55.783zm146.19 115.418h-44.23l71.18-205.817h48.08l71.15 205.817h-46.16l-11.56-42.333h-75zm25-78.869h51.96l-25.01-80.802h-1.92zm263.55-126.961h38.45v205.83h-40.37l-82.71-148.115h-1.93v148.115h-38.47v-205.83h44.22l80.81 144.263zm207.75 67.339c-1.92-13.476-9.63-36.549-44.26-36.549-19.22 0-50 13.45-50 73.085 0 36.549 15.39 71.178 50 71.178 23.08 0 40.4-13.476 44.26-40.401h42.3c-7.7 46.185-36.55 76.963-86.56 76.963-53.85 0-92.33-36.549-92.33-107.74 0-73.085 40.4-109.634 92.33-109.634 59.64 0 84.63 42.334 86.56 73.111h-42.3zm217.34-30.777h-103.86v42.307h96.19v36.549h-96.19v53.85h109.64v36.562h-150.04v-205.83h144.26z" fill="#e3e8f0" mask="url(#a)" stroke="#e3e8f0" stroke-width="25.9395"/><path d="m504.261 672.392h-17.315v-9.623s3.852-7.678-13.462-7.678h-103.862s-25.006 5.745-23.086-15.408c0 0 1.919-19.222 21.153-23.074 9.624-1.919 11.544-9.623 11.544-9.623v-559.7493s-3.852-28.8577 15.395-46.15933c0 0-50.012-5.77153-65.407 30.77723 0 0-46.159 28.8578-51.931 53.8635 0 0-5.771 15.3949-21.166 28.8579 0 0-51.931 46.172-48.092 109.646 0 0-44.24 55.783-21.154 119.257 0 0-15.395 30.777-11.543 71.178 0 0-11.543 32.697-9.624 55.783l-5.771-1.919s-5.772 48.079 5.771 65.406l-5.771-1.919s9.61 49.998 19.234 61.554h-5.772s15.396 49.999 36.549 61.555h-176.9593s36.5488 36.522 44.2399 38.455l5.7715 11.556s26.9249 15.382 40.3879 9.624c0 0 13.476 17.301 42.32 26.925 0 0 0-13.476 3.839-19.247 0 0 65.407 30.777 138.505 42.333 0 0 3.839 25.006 17.301 28.858 0 0 1.92-19.221 21.154-19.221h17.314s13.463 1.893 9.624 19.221c0 0 5.772 0 19.234-5.772 0 0 15.395-7.704 21.154-17.301 0 0 3.852-9.624-11.543-17.328l-25.006-11.53s61.555-21.18 78.869-32.697c0 0 17.302-11.556 23.073-5.772 0 0 5.772 13.476 3.852 17.302 0 0 23.074-15.382 30.778-30.777.026-.052 5.797-15.434-9.598-17.354zm-9.611 24.993s-11.543-3.852-13.462-5.771c-3.852-1.92-17.302-3.852-28.858 5.771-11.543 9.624-42.32 19.247-42.32 19.247s5.771-7.704 7.691-15.408c1.919-5.771-15.395-9.623-15.395-9.623l15.395-13.45-5.772-11.556h61.555s-1.92 3.852-3.839 9.623c-1.92 3.852 1.919 7.705 1.919 7.705h26.926c9.623.013-3.84 13.462-3.84 13.462z" fill="#86898e"/><path d="m369.622 14.54s-32.697 3.8391-46.172 57.7025c0 0-21.167 61.5545 3.839 201.9655l-11.543 9.623s-34.617-134.639-7.691-215.4405c0 0-80.789 59.6355-21.167 246.2185l-7.691 9.623s-46.173-115.418-21.167-188.515c0 0-73.097 50.011-1.919 221.212l-9.611 11.543s-28.858-67.326-34.616-111.566c0 0-44.253 38.468 15.382 148.115l-1.92 15.408s-23.086-34.63-26.938-44.266c0 0-23.073 40.414 13.476 75.017l3.839 17.328s-25.006-15.408-34.63-25.006c0 0-9.61 48.079 30.791 63.487l1.919 13.45s-32.697-11.556-38.468-21.154c0 0-5.772 49.998 42.32 59.635l1.92 13.45s-30.778-7.679-40.401-15.383c0 0 9.623 44.227 51.931 55.783l5.771 15.383s-34.616-5.746-40.4-13.45c0 0 13.475 32.697 48.091 51.931h-178.8785s5.7715 15.408 38.4685 21.154l-7.6913 7.704s15.3953 13.475 25.0053 7.704c0 0 5.772-3.852 13.463-3.852 0 0 0 15.408 21.154 25.005 0 0-1.92-13.449 3.852-15.382 0 0 3.852 0 13.462 3.852 0 0 76.95 30.777 142.344 38.456 0 0 9.623 0 5.771 11.556 0 0-1.919 5.771 1.92 13.449 0 0 9.61-7.678 11.543-11.53 0 0 26.925-1.919 42.32 1.92 0 0 7.691 5.771 5.772 13.449l15.395-13.449-57.703-26.926s51.931-7.704 57.703-26.925c0 0 11.543-9.623-17.315-17.327l13.463-13.45s13.462-9.624-7.691-11.556c0 0-15.395-1.92-32.697-3.852-17.315 0-46.173-34.629 9.61-65.407v-553.9902c.013 0 .013-21.1666 5.785-32.6968z" fill="#e3e8f0"/><path d="m444.639 678.164 13.463 3.852-3.852-9.624z" fill="#86898e"/></g></svg>

<svg width="2280" height="794" viewBox="0 0 2280 794" fill="none" xmlns="http://www.w3.org/2000/svg">
<path d="M492.5 703C492.5 703 478.946 696.956 477 695C473.096 693.044 466.712 693.191 455 703C443.301 712.809 408.808 717 408.808 717C408.808 717 414.658 709.148 416.604 701.296C418.549 695.413 401 691.487 401 691.487L416.604 677.778L410.754 666L477 662.5C477 662.5 478.946 669.617 477 675.5L505.5 680.5C515.254 680.513 492.5 703 492.5 703Z" fill="#E3E8F0"/>
<mask id="path-2-inside-1" fill="white">
<path fill-rule="evenodd" clip-rule="evenodd" d="M431.176 176.117H565.816V639.683H421.553L136.867 364.62V639.683H0.294922V176.117H142.638L431.176 449.274V176.117ZM771.646 178.037H810.114V385.787H769.726L688.925 237.672V385.787H650.456V178.037H692.777L771.646 322.3V178.037V178.037ZM865.897 385.787H823.577L892.822 178.037H938.995L1008.24 385.787H964L952.457 343.466H879.36L865.897 385.787ZM890.903 306.917H940.914L915.908 224.209L890.903 306.917ZM1077.49 385.787H1037.08V214.586H977.463V178.037H1137.12V214.586H1077.49V385.787V385.787ZM1146.73 178.037H1187.13V385.787H1146.73V178.037ZM1300.62 172.265C1325.62 172.265 1394.88 183.808 1394.88 281.912C1394.88 380.002 1325.62 391.558 1300.62 391.558C1273.69 391.558 1206.35 380.015 1206.35 281.912C1206.35 183.795 1273.69 172.265 1300.62 172.265V172.265ZM1300.62 355.009C1321.77 355.009 1352.55 339.614 1352.55 281.912C1352.55 224.209 1321.77 208.814 1300.62 208.814C1277.54 208.814 1246.77 224.209 1246.77 281.912C1246.77 339.614 1277.53 355.009 1300.62 355.009ZM1546.84 178.037H1583.38V385.787H1542.98L1464.13 237.672H1462.21V385.787H1425.65V178.037H1467.98L1544.92 322.3H1546.84V178.037ZM1602.62 178.037H1644.95C1669.96 291.522 1673.81 306.917 1675.7 329.991H1677.62C1681.47 308.837 1683.39 287.67 1704.55 178.037H1746.88C1769.95 291.522 1771.89 303.065 1777.66 329.991C1781.51 310.756 1783.43 291.522 1808.44 178.037H1850.77L1794.96 385.787H1756.5C1735.33 283.831 1733.41 264.597 1725.73 224.209C1719.96 264.597 1716.1 278.06 1694.95 385.787H1656.47L1602.62 178.037V178.037ZM1871.92 178.037H1912.3V385.787H1871.92V178.037ZM1941.17 178.037H2025.8C2093.1 178.037 2106.58 237.672 2106.58 276.127C2106.58 322.3 2089.28 385.774 2025.8 385.774H1941.17V178.037ZM1979.62 349.225H2020.02C2052.72 349.225 2064.25 314.608 2064.25 279.979C2064.25 218.425 2037.33 214.586 2020.02 214.586H1979.62V349.225ZM2275.85 214.586H2171.99V258.826H2266.26V295.374H2171.99V349.225H2279.71V385.787H2131.59V178.037H2275.85V214.586ZM650.456 439.637H692.777V645.467H650.456V439.637ZM850.502 439.637H890.903V645.467H848.582L765.874 497.352V645.467H725.473V439.637H769.726L850.502 583.9V439.637ZM960.148 581.98C960.148 593.536 965.92 614.677 1002.47 614.677C1023.62 614.677 1044.79 610.825 1044.79 589.671C1044.79 572.344 1029.39 568.518 1008.24 562.746L987.086 556.974C954.39 549.27 923.6 543.499 923.6 497.339C923.6 474.266 935.143 433.853 1000.55 433.853C1062.1 433.853 1079.42 474.253 1079.42 501.178H1039.02C1037.1 491.555 1033.25 468.482 996.697 468.482C981.302 468.482 962.081 474.253 962.081 493.487C962.081 510.789 975.556 512.709 983.235 514.641L1033.25 528.117C1060.17 535.821 1085.18 545.418 1085.18 583.9C1085.18 645.454 1023.62 651.226 1006.31 651.226C933.21 651.226 919.748 606.973 919.748 581.967H960.148V581.98V581.98ZM1279.46 574.276C1279.46 628.127 1246.77 651.239 1196.76 651.239C1177.51 651.239 1150.57 647.387 1133.27 626.233C1121.73 612.757 1117.87 597.375 1115.95 576.209V439.637H1160.21V572.344C1160.21 601.201 1175.59 614.677 1194.84 614.677C1223.69 614.677 1237.14 601.201 1237.14 574.276V439.637H1279.48V574.276H1279.46V574.276ZM1321.77 439.637H1423.73C1477.58 439.637 1487.21 480.012 1487.21 497.339C1487.21 520.413 1477.59 539.647 1456.44 547.338C1473.74 555.042 1483.36 560.814 1483.36 599.269C1483.36 630.046 1483.36 637.75 1491.07 639.67V645.441H1444.88C1442.96 635.818 1441.03 626.22 1441.03 603.108C1441.03 576.183 1439.13 564.653 1408.33 564.653H1364.1V645.441H1321.77V439.637ZM1414.1 530.049C1435.28 530.049 1446.8 522.345 1446.8 501.191C1446.8 491.568 1441.03 474.266 1416.02 474.266H1364.09V530.049H1414.1V530.049ZM1560.29 645.467H1516.06L1587.24 439.65H1635.32L1706.47 645.467H1660.31L1648.75 603.134H1573.75L1560.29 645.467ZM1585.29 566.598H1637.25L1612.24 485.796H1610.32L1585.29 566.598ZM1848.84 439.637H1887.29V645.467H1846.92L1764.21 497.352H1762.28V645.467H1723.81V439.637H1768.03L1848.84 583.9V439.637V439.637ZM2056.59 506.976C2054.67 493.5 2046.96 470.427 2012.33 470.427C1993.11 470.427 1962.33 483.877 1962.33 543.512C1962.33 580.061 1977.72 614.69 2012.33 614.69C2035.41 614.69 2052.73 601.214 2056.59 574.289H2098.89C2091.19 620.474 2062.34 651.252 2012.33 651.252C1958.48 651.252 1920 614.703 1920 543.512C1920 470.427 1960.4 433.878 2012.33 433.878C2071.97 433.878 2096.96 476.212 2098.89 506.989H2056.59V506.976ZM2273.93 476.199H2170.07V518.506H2266.26V555.055H2170.07V608.905H2279.71V645.467H2129.67V439.637H2273.93V476.199V476.199Z"/>
</mask>
<path fill-rule="evenodd" clip-rule="evenodd" d="M431.176 176.117H565.816V639.683H421.553L136.867 364.62V639.683H0.294922V176.117H142.638L431.176 449.274V176.117ZM771.646 178.037H810.114V385.787H769.726L688.925 237.672V385.787H650.456V178.037H692.777L771.646 322.3V178.037V178.037ZM865.897 385.787H823.577L892.822 178.037H938.995L1008.24 385.787H964L952.457 343.466H879.36L865.897 385.787ZM890.903 306.917H940.914L915.908 224.209L890.903 306.917ZM1077.49 385.787H1037.08V214.586H977.463V178.037H1137.12V214.586H1077.49V385.787V385.787ZM1146.73 178.037H1187.13V385.787H1146.73V178.037ZM1300.62 172.265C1325.62 172.265 1394.88 183.808 1394.88 281.912C1394.88 380.002 1325.62 391.558 1300.62 391.558C1273.69 391.558 1206.35 380.015 1206.35 281.912C1206.35 183.795 1273.69 172.265 1300.62 172.265V172.265ZM1300.62 355.009C1321.77 355.009 1352.55 339.614 1352.55 281.912C1352.55 224.209 1321.77 208.814 1300.62 208.814C1277.54 208.814 1246.77 224.209 1246.77 281.912C1246.77 339.614 1277.53 355.009 1300.62 355.009ZM1546.84 178.037H1583.38V385.787H1542.98L1464.13 237.672H1462.21V385.787H1425.65V178.037H1467.98L1544.92 322.3H1546.84V178.037ZM1602.62 178.037H1644.95C1669.96 291.522 1673.81 306.917 1675.7 329.991H1677.62C1681.47 308.837 1683.39 287.67 1704.55 178.037H1746.88C1769.95 291.522 1771.89 303.065 1777.66 329.991C1781.51 310.756 1783.43 291.522 1808.44 178.037H1850.77L1794.96 385.787H1756.5C1735.33 283.831 1733.41 264.597 1725.73 224.209C1719.96 264.597 1716.1 278.06 1694.95 385.787H1656.47L1602.62 178.037V178.037ZM1871.92 178.037H1912.3V385.787H1871.92V178.037ZM1941.17 178.037H2025.8C2093.1 178.037 2106.58 237.672 2106.58 276.127C2106.58 322.3 2089.28 385.774 2025.8 385.774H1941.17V178.037ZM1979.62 349.225H2020.02C2052.72 349.225 2064.25 314.608 2064.25 279.979C2064.25 218.425 2037.33 214.586 2020.02 214.586H1979.62V349.225ZM2275.85 214.586H2171.99V258.826H2266.26V295.374H2171.99V349.225H2279.71V385.787H2131.59V178.037H2275.85V214.586ZM650.456 439.637H692.777V645.467H650.456V439.637ZM850.502 439.637H890.903V645.467H848.582L765.874 497.352V645.467H725.473V439.637H769.726L850.502 583.9V439.637ZM960.148 581.98C960.148 593.536 965.92 614.677 1002.47 614.677C1023.62 614.677 1044.79 610.825 1044.79 589.671C1044.79 572.344 1029.39 568.518 1008.24 562.746L987.086 556.974C954.39 549.27 923.6 543.499 923.6 497.339C923.6 474.266 935.143 433.853 1000.55 433.853C1062.1 433.853 1079.42 474.253 1079.42 501.178H1039.02C1037.1 491.555 1033.25 468.482 996.697 468.482C981.302 468.482 962.081 474.253 962.081 493.487C962.081 510.789 975.556 512.709 983.235 514.641L1033.25 528.117C1060.17 535.821 1085.18 545.418 1085.18 583.9C1085.18 645.454 1023.62 651.226 1006.31 651.226C933.21 651.226 919.748 606.973 919.748 581.967H960.148V581.98V581.98ZM1279.46 574.276C1279.46 628.127 1246.77 651.239 1196.76 651.239C1177.51 651.239 1150.57 647.387 1133.27 626.233C1121.73 612.757 1117.87 597.375 1115.95 576.209V439.637H1160.21V572.344C1160.21 601.201 1175.59 614.677 1194.84 614.677C1223.69 614.677 1237.14 601.201 1237.14 574.276V439.637H1279.48V574.276H1279.46V574.276ZM1321.77 439.637H1423.73C1477.58 439.637 1487.21 480.012 1487.21 497.339C1487.21 520.413 1477.59 539.647 1456.44 547.338C1473.74 555.042 1483.36 560.814 1483.36 599.269C1483.36 630.046 1483.36 637.75 1491.07 639.67V645.441H1444.88C1442.96 635.818 1441.03 626.22 1441.03 603.108C1441.03 576.183 1439.13 564.653 1408.33 564.653H1364.1V645.441H1321.77V439.637ZM1414.1 530.049C1435.28 530.049 1446.8 522.345 1446.8 501.191C1446.8 491.568 1441.03 474.266 1416.02 474.266H1364.09V530.049H1414.1V530.049ZM1560.29 645.467H1516.06L1587.24 439.65H1635.32L1706.47 645.467H1660.31L1648.75 603.134H1573.75L1560.29 645.467ZM1585.29 566.598H1637.25L1612.24 485.796H1610.32L1585.29 566.598ZM1848.84 439.637H1887.29V645.467H1846.92L1764.21 497.352H1762.28V645.467H1723.81V439.637H1768.03L1848.84 583.9V439.637V439.637ZM2056.59 506.976C2054.67 493.5 2046.96 470.427 2012.33 470.427C1993.11 470.427 1962.33 483.877 1962.33 543.512C1962.33 580.061 1977.72 614.69 2012.33 614.69C2035.41 614.69 2052.73 601.214 2056.59 574.289H2098.89C2091.19 620.474 2062.34 651.252 2012.33 651.252C1958.48 651.252 1920 614.703 1920 543.512C1920 470.427 1960.4 433.878 2012.33 433.878C2071.97 433.878 2096.96 476.212 2098.89 506.989H2056.59V506.976ZM2273.93 476.199H2170.07V518.506H2266.26V555.055H2170.07V608.905H2279.71V645.467H2129.67V439.637H2273.93V476.199V476.199Z" fill="#E3E8F0" stroke="#E3E8F0" stroke-width="25.9395" mask="url(#path-2-inside-1)"/>
<path fill-rule="evenodd" clip-rule="evenodd" d="M504.261 672.392H486.946V662.769C486.946 662.769 490.798 655.091 473.484 655.091H369.622C369.622 655.091 344.616 660.836 346.536 639.683C346.536 639.683 348.455 620.461 367.689 616.609C377.313 614.69 379.233 606.986 379.233 606.986V47.2367C379.233 47.2367 375.381 18.379 394.628 1.07737C394.628 1.07737 344.616 -4.69416 329.221 31.8546C329.221 31.8546 283.062 60.7124 277.29 85.7181C277.29 85.7181 271.519 101.113 256.124 114.576C256.124 114.576 204.193 160.748 208.032 224.222C208.032 224.222 163.792 280.005 186.878 343.479C186.878 343.479 171.483 374.256 175.335 414.657C175.335 414.657 163.792 447.354 165.711 470.44L159.94 468.521C159.94 468.521 154.168 516.6 165.711 533.927L159.94 532.008C159.94 532.008 169.55 582.006 179.174 593.562H173.402C173.402 593.562 188.798 643.561 209.951 655.117H32.9917C32.9917 655.117 69.5405 691.639 77.2316 693.572L83.0031 705.128C83.0031 705.128 109.928 720.51 123.391 714.752C123.391 714.752 136.867 732.053 165.711 741.677C165.711 741.677 165.711 728.201 169.55 722.43C169.55 722.43 234.957 753.207 308.055 764.763C308.055 764.763 311.894 789.769 325.356 793.621C325.356 793.621 327.276 774.4 346.51 774.4H363.824C363.824 774.4 377.287 776.293 373.448 793.621C373.448 793.621 379.22 793.621 392.682 787.849C392.682 787.849 408.077 780.145 413.836 770.548C413.836 770.548 417.688 760.924 402.293 753.22L377.287 741.69C377.287 741.69 438.842 720.51 456.156 708.993C456.156 708.993 473.458 697.437 479.229 703.221C479.229 703.221 485.001 716.697 483.081 720.523C483.081 720.523 506.155 705.141 513.859 689.746C513.885 689.694 519.656 674.312 504.261 672.392ZM494.65 697.385C494.65 697.385 483.107 693.533 481.188 691.614C477.336 689.694 463.886 687.762 452.33 697.385C440.787 707.009 410.01 716.632 410.01 716.632C410.01 716.632 415.781 708.928 417.701 701.224C419.62 695.453 402.306 691.601 402.306 691.601L417.701 678.151L411.929 666.595H473.484C473.484 666.595 471.564 670.447 469.645 676.218C467.725 680.07 471.564 683.923 471.564 683.923H498.49C508.113 683.936 494.65 697.385 494.65 697.385Z" fill="#86898E"/>
<path fill-rule="evenodd" clip-rule="evenodd" d="M369.622 14.54C369.622 14.54 336.925 18.3791 323.45 72.2425C323.45 72.2425 302.283 133.797 327.289 274.208L315.746 283.831C315.746 283.831 281.129 149.192 308.055 68.3905C308.055 68.3905 227.266 128.026 286.888 314.609L279.197 324.232C279.197 324.232 233.024 208.814 258.03 135.717C258.03 135.717 184.933 185.728 256.111 356.929L246.5 368.472C246.5 368.472 217.642 301.146 211.884 256.906C211.884 256.906 167.631 295.374 227.266 405.021L225.346 420.429C225.346 420.429 202.26 385.799 198.408 376.163C198.408 376.163 175.335 416.577 211.884 451.18L215.723 468.508C215.723 468.508 190.717 453.1 181.093 443.502C181.093 443.502 171.483 491.581 211.884 506.989L213.803 520.439C213.803 520.439 181.106 508.883 175.335 499.285C175.335 499.285 169.563 549.283 217.655 558.92L219.575 572.37C219.575 572.37 188.797 564.691 179.174 556.987C179.174 556.987 188.797 601.214 231.105 612.77L236.876 628.153C236.876 628.153 202.26 622.407 196.476 614.703C196.476 614.703 209.951 647.4 244.567 666.634H65.6885C65.6885 666.634 71.46 682.042 104.157 687.788L96.4657 695.492C96.4657 695.492 111.861 708.967 121.471 703.196C121.471 703.196 127.243 699.344 134.934 699.344C134.934 699.344 134.934 714.752 156.088 724.349C156.088 724.349 154.168 710.9 159.94 708.967C159.94 708.967 163.792 708.967 173.402 712.819C173.402 712.819 250.352 743.596 315.746 751.275C315.746 751.275 325.369 751.275 321.517 762.831C321.517 762.831 319.598 768.602 323.437 776.28C323.437 776.28 333.047 768.602 334.98 764.75C334.98 764.75 361.905 762.831 377.3 766.67C377.3 766.67 384.991 772.441 383.072 780.119L398.467 766.67L340.764 739.744C340.764 739.744 392.695 732.04 398.467 712.819C398.467 712.819 410.01 703.196 381.152 695.492L394.615 682.042C394.615 682.042 408.077 672.418 386.924 670.486C386.924 670.486 371.529 668.566 354.227 666.634C336.912 666.634 308.054 632.005 363.837 601.227V47.2368C363.85 47.2368 363.85 26.0702 369.622 14.54Z" fill="#E3E8F0"/>
<path fill-rule="evenodd" clip-rule="evenodd" d="M444.639 678.164L458.102 682.016L454.25 672.392L444.639 678.164Z" fill="#86898E"/>
</svg>
